X:405
T: Verzweiflung, 3. Melodie, (126a), S. 286
N: T0293V
O: Luxemburg
S: Singendes Volk, Esch-Alzette 1937 posth.]
N: Grevenmacher
R: Liebeslieder]
M: 4/4
L: 1/8
K: G
D2 | DBAGGFED | DBG2z2
D2 | DBAGGFED | DBG2z2
Bc | dBBBB2AB | c4z2
cc | BBAAd2dc | B4z2

@@@ Tune index: 8459
